X: 27
T:Johnny Do I Miss You!
M:2/4
L:1/8
R:Polka
K:D
d>B[|:AF ED|FA, A,E|FB AF|E2 d>B|!
AF ED|FA, A,F|GA/2G/2 FE|1D2 d>B:|2D2 D>A|]!
FA A/2B/2A/2G/2|FA A>G|FA Bc|d2 d>A|!
FA A/2B/2A/2G/2|FA d>e|fe ed|e2 A>G||!
FA A/2B/2A/2G/2|FA A>G|FA Bc|d2 c>B|!
AF ED|FA, A,F|GA/2G/2 FE|D2 d>B|]!
